X: 1
T: Perpetual Motion
C: S. Suzuki
M: 4/4
K:A
L:1/8
Q:1/4=120
| v.A.B.c.c .B.c.d.d | cd"4"ec dB"0"ee | ABcc Bcdd |
w:mf
cd"4"ec dBAA | agff gfee | fedd cB"0"ee |
agff gfee | fedd cBAA | cABB dBcc |
"4"ecd"0"e fgaa | cABB dBcc | "4"ecd"0"e fgaa |
ABcc Bcdd | cd"4"ec dB"0"ee | ABcc Bcdd | cd"4"ec dBAA |]
